X:106
T: Annak a kislánybak
M: 2/4
L: 1/4
K: F
g/g/g | d/dd/ | 
g/g/g | c/cc/ | 
f/e/d | B/BB/|
d/c/B | G/GG/ | 

